icons/marketplace-placeholder.svg

<svg width="36" height="36" viewBox="0 0 36 36" fill="none" xmlns="http://www.w3.org/2000/svg">
    <rect x="0.5" y="0.5" width="35" height="35" rx="7.5" fill="white"/>
    <rect x="0.5" y="0.5" width="35" height="35" rx="7.5" stroke="#E9EAEC"/>
    <path d="M24.2143 19.9454C24.2143 20.3839 23.8515 20.7394 23.4039 20.7394C22.9564 20.7394 22.5936 20.3839 22.5936 19.9454C22.5936 19.5069 22.9564 19.1514 23.4039 19.1514C23.8515 19.1514 24.2143 19.5069 24.2143 19.9454Z"
          fill="#2B2B2B"/>
    <path fill-rule="evenodd" clip-rule="evenodd"
          d="M12.8688 8.79166C12.5542 8.79166 12.2662 8.96756 12.1237 9.24681L8.88217 15.5986C8.82257 15.7154 8.7915 15.8445 8.7915 15.9755C8.7915 16.9135 9.06726 17.7239 9.6024 18.3095C10.04 18.7883 10.6095 19.0701 11.2227 19.1589V25.5032C11.2227 25.9628 11.5969 26.3353 12.0585 26.3353H18.5416C19.0031 26.3353 19.3773 25.9628 19.3773 25.5032C19.3773 25.0437 19.0031 24.6711 18.5416 24.6711H12.8942V18.9112C13.1866 18.7725 13.4518 18.5863 13.6792 18.3623C14.1992 18.8746 14.9176 19.1896 15.7051 19.1896C16.4928 19.1896 17.2112 18.8745 17.7312 18.3622C17.9827 18.6099 18.2806 18.8115 18.6102 18.9537C18.5489 19.2664 18.5162 19.5971 18.5162 19.9454C18.5162 20.7627 18.8437 21.6165 19.2456 22.3763C19.6566 23.1537 20.1949 23.9232 20.7176 24.594C21.2425 25.2678 21.7654 25.8593 22.156 26.2816C22.3518 26.4932 22.5154 26.6634 22.6308 26.7815C22.6886 26.8406 22.7343 26.8867 22.7661 26.9185L22.8031 26.9553L22.8133 26.9654L22.8175 26.9695C23.1427 27.2881 23.6653 27.2878 23.9905 26.9692L23.9944 26.9654L24.0046 26.9553L24.0416 26.9185C24.0734 26.8867 24.1191 26.8406 24.1769 26.7815C24.2923 26.6634 24.4559 26.4932 24.6517 26.2816C25.0423 25.8593 25.5652 25.2678 26.0901 24.594C26.6128 23.9232 27.1511 23.1537 27.5621 22.3763C27.964 21.6165 28.2915 20.7627 28.2915 19.9454C28.2915 18.3399 27.5968 17.1084 26.6068 16.2947C26.6972 16.0778 26.6952 15.8244 26.58 15.5986L23.3385 9.24681C23.196 8.96756 22.908 8.79166 22.5934 8.79166H12.8688ZM23.4038 15.1434C21.8403 15.1434 20.1473 15.9292 19.221 17.4026C18.8289 17.2108 18.5668 16.8159 18.5668 16.3725C18.5668 15.913 18.1927 15.5404 17.7311 15.5404C17.2696 15.5404 16.8954 15.913 16.8954 16.3725C16.8954 16.9969 16.3755 17.5254 15.7051 17.5254C15.0348 17.5254 14.5149 16.9969 14.5149 16.3725C14.5149 15.913 14.1407 15.5404 13.6792 15.5404C13.2176 15.5404 12.8434 15.913 12.8434 16.3725C12.8434 16.9969 12.3235 17.5254 11.6532 17.5254C11.3079 17.5254 11.0333 17.4024 10.8387 17.1895C10.6615 16.9957 10.5008 16.6709 10.4687 16.1635L13.3815 10.4558H22.0807L24.5418 15.2784C24.1633 15.1889 23.7798 15.1434 23.4038 15.1434ZM23.4038 16.8076C21.8173 16.8076 20.1876 17.9607 20.1876 19.9454C20.1876 20.3588 20.3666 20.9242 20.7245 21.601C21.0731 22.2603 21.5479 22.9447 22.0382 23.574C22.5262 24.2003 23.0163 24.7551 23.3854 25.1541L23.4038 25.174L23.4223 25.1541C23.7914 24.7551 24.2815 24.2003 24.7695 23.574C25.2598 22.9447 25.7346 22.2603 26.0832 21.601C26.4411 20.9242 26.6201 20.3588 26.6201 19.9454C26.6201 17.9607 24.9904 16.8076 23.4038 16.8076Z"
          fill="#2B2B2B"/>
</svg>

<svg xmlns="http://www.w3.org/2000/svg" fill="none" viewBox="0 0 36 36"><rect width="35" height="35" x=".5" y=".5" fill="currentColor" rx="7.5"/><rect width="35" height="35" x=".5" y=".5" stroke="currentColor" rx="7.5"/><path fill="currentColor" d="M24.214 19.945a.8.8 0 0 1-.81.794.8.8 0 0 1-.81-.794c0-.438.362-.794.81-.794s.81.356.81.794"/><path fill="currentColor" fill-rule="evenodd" d="M12.869 8.792a.84.84 0 0 0-.745.455l-3.242 6.352a.8.8 0 0 0-.09.377c0 .937.275 1.748.81 2.333.438.48 1.008.761 1.62.85v6.344c0 .46.375.832.837.832h6.483a.834.834 0 0 0 .835-.832.834.834 0 0 0-.835-.832h-5.648v-5.76c.293-.139.558-.325.785-.549.52.513 1.239.828 2.026.828.788 0 1.506-.316 2.026-.828.252.248.55.45.88.592a5 5 0 0 0-.095.991c0 .818.328 1.671.73 2.431.41.778.949 1.547 1.472 2.218a27 27 0 0 0 2.048 2.325l.037.036.01.01.005.005a.84.84 0 0 0 1.172 0l.004-.005.01-.01.038-.036.135-.137a26.672 26.672 0 0 0 1.913-2.187c.523-.672 1.061-1.441 1.472-2.219.402-.76.73-1.613.73-2.43 0-1.606-.695-2.838-1.685-3.651a.83.83 0 0 0-.027-.696l-3.241-6.352a.84.84 0 0 0-.746-.455zm10.535 6.351c-1.564 0-3.257.786-4.183 2.26a1.15 1.15 0 0 1-.654-1.03.834.834 0 0 0-.836-.833.834.834 0 0 0-.836.832c0 .625-.52 1.153-1.19 1.153s-1.19-.528-1.19-1.152a.834.834 0 0 0-.836-.833.834.834 0 0 0-.836.832c0 .625-.52 1.153-1.19 1.153-.345 0-.62-.123-.814-.335-.178-.194-.338-.52-.37-1.027l2.913-5.707h8.699l2.46 4.822a5 5 0 0 0-1.137-.135m0 1.665c-1.587 0-3.216 1.153-3.216 3.137 0 .414.179.98.537 1.656.348.66.823 1.344 1.313 1.973.488.626.978 1.181 1.347 1.58l.019.02.018-.02c.37-.399.86-.954 1.348-1.58.49-.63.965-1.314 1.313-1.973.358-.677.537-1.242.537-1.656 0-1.984-1.63-3.137-3.216-3.137" clip-rule="evenodd"/></svg>
